src/assets/fallback_achievement.svg

<svg width="254" height="169" viewBox="0 0 254 169" fill="none" xmlns="http://www.w3.org/2000/svg">
    <path d="M0 8C0 3.58172 3.58172 0 8 0H246C250.418 0 254 3.58172 254 8V169H0V8Z"
        fill="url(#paint0_linear_644_17380)" />
    <path fill-rule="evenodd" clip-rule="evenodd"
        d="M110.439 44.6706C79.7577 59.4558 79.0302 106.957 109.243 122.697C112.774 124.536 112.905 124.491 111.827 121.795C108.577 113.671 105.884 99.5798 107.729 100.354C119.703 105.375 133.673 105.522 144.896 100.745C148.093 99.3839 146.87 109.209 142.334 121.331C141.123 124.566 141.161 124.593 144.495 122.834C174.882 106.795 174.387 59.549 143.677 44.74C141.283 43.5859 141.116 43.7192 142.079 46.0127C143.703 49.8812 145.699 57.6009 146.664 63.7514C147.382 68.3259 147.36 68.3984 145.504 67.5169C135.055 62.5535 119.954 62.5565 108.004 67.524C105.925 68.3885 108.033 56.2952 111.645 46.6424C112.785 43.5962 112.758 43.5527 110.439 44.6706ZM133.146 74.322C151.962 77.0432 154.718 88.4109 137.62 92.7739C121.234 96.955 101.385 90.4296 105.014 82.0551C107.488 76.3493 121.165 72.5894 133.146 74.322Z"
        fill="rgba(255,255,255,0.25)" />
    <defs>
        <linearGradient id="paint0_linear_644_17380" x1="242.993" y1="169" x2="56.0761" y2="95.2086"
            gradientUnits="userSpaceOnUse">
            <stop stop-color="#34004D" />
            <stop offset="1" stop-color="#00257F" />
        </linearGradient>
    </defs>
</svg>

<svg id="Layer_1" xmlns="http://www.w3.org/2000/svg" xmlns:xlink="http://www.w3.org/1999/xlink" viewBox="0 0 254 169"><defs><style>.cls-1{fill:url(#linear-gradient);}.cls-1,.cls-2{stroke-width:0px;}.cls-2{fill:#fff;opacity:.31;}</style><linearGradient id="linear-gradient" x1="256.14" y1="34.52" x2="67.72" y2="108.9" gradientTransform="translate(0 170) scale(1 -1)" gradientUnits="userSpaceOnUse"><stop offset="0" stop-color="#34004d"/><stop offset="1" stop-color="#00257f"/></linearGradient></defs><path class="cls-1" d="m0,169V0h254v169H0Z"/><path class="cls-2" d="m110.44,44.67c-30.68,14.79-31.41,62.29-1.2,78.03,3.53,1.84,3.66,1.79,2.58-.9-3.25-8.12-5.94-22.22-4.1-21.44,11.97,5.02,25.94,5.17,37.17.39,3.2-1.36,1.97,8.46-2.56,20.59-1.21,3.24-1.17,3.26,2.16,1.5,30.39-16.04,29.89-63.28-.82-78.09-2.39-1.15-2.56-1.02-1.6,1.27,1.62,3.87,3.62,11.59,4.59,17.74.72,4.57.7,4.65-1.16,3.77-10.45-4.96-25.55-4.96-37.5,0-2.08.86.03-11.23,3.64-20.88,1.14-3.05,1.11-3.09-1.21-1.97Zm22.71,29.65c18.82,2.72,21.57,14.09,4.47,18.45-16.39,4.18-36.23-2.34-32.61-10.72,2.47-5.71,16.15-9.47,28.13-7.73Z"/></svg>
